X: 31755
T: Path You Can't See, The
R: waltz
M: 3/4
K: Eminor
|:B2|e3g eB|G3B AB|cB AB ce|B4 B2|
e3g eB|G3B AB|cB AB FG|E4:|
|:B2|e2 Be ge|c'3b ag|fA df af|b3a gf|
e2 Be ge|c'3b ag|fa B2 ^d2|e4:|

